assets/icons/outline/code-regex.svg

<svg width="24" height="24" viewBox="0 0 24 24" fill="none" xmlns="http://www.w3.org/2000/svg">
<path fill-rule="evenodd" clip-rule="evenodd" d="M6 14.25C8.07107 14.25 9.75 15.9289 9.75 18C9.75 20.0711 8.07107 21.75 6 21.75C3.92893 21.75 2.25 20.0711 2.25 18C2.25 15.9289 3.92893 14.25 6 14.25ZM6 15.75C4.75736 15.75 3.75 16.7574 3.75 18C3.75 19.2426 4.75736 20.25 6 20.25C7.24264 20.25 8.25 19.2426 8.25 18C8.25 16.7574 7.24264 15.75 6 15.75Z" fill="#282828"/>
<path d="M14.9951 2.25C15.4093 2.25 15.7451 2.58579 15.7451 3V7.1875L18.709 4.22363C19.0019 3.93074 19.4766 3.93074 19.7695 4.22363C20.0624 4.51653 20.0624 4.99129 19.7695 5.28418L16.8086 8.24512H21C21.4142 8.24512 21.75 8.5809 21.75 8.99512C21.7499 9.40928 21.4142 9.74512 21 9.74512H16.7988L19.7695 12.7158C20.0624 13.0087 20.0624 13.4835 19.7695 13.7764C19.4766 14.0693 19.0019 14.0693 18.709 13.7764L15.7451 10.8125V15C15.7451 15.4142 15.4093 15.75 14.9951 15.75C14.5809 15.75 14.2451 15.4142 14.2451 15V10.8086L11.2842 13.7695C10.9913 14.0623 10.5165 14.0624 10.2236 13.7695C9.93078 13.4767 9.93086 13.0019 10.2236 12.709L13.1875 9.74512H9C8.58583 9.74512 8.25007 9.40927 8.25 8.99512C8.25 8.5809 8.58579 8.24512 9 8.24512H13.1777L10.2236 5.29102C9.93088 4.99811 9.93078 4.52332 10.2236 4.23047C10.5165 3.93769 10.9913 3.93773 11.2842 4.23047L14.2451 7.19141V3C14.2451 2.58579 14.5809 2.25 14.9951 2.25Z" fill="#282828"/>
</svg>

<svg xmlns="http://www.w3.org/2000/svg" width="24" height="24" fill="none" viewBox="0 0 24 24"><path fill="#282828" fill-rule="evenodd" d="M6 14.25a3.75 3.75 0 1 1 0 7.5 3.75 3.75 0 0 1 0-7.5m0 1.5a2.25 2.25 0 1 0 0 4.5 2.25 2.25 0 0 0 0-4.5" clip-rule="evenodd"/><path fill="#282828" d="M14.995 2.25a.75.75 0 0 1 .75.75v4.188l2.964-2.964a.75.75 0 1 1 1.06 1.06l-2.96 2.961H21a.75.75 0 0 1 0 1.5h-4.201l2.97 2.97a.75.75 0 1 1-1.06 1.061l-2.964-2.963V15a.75.75 0 0 1-1.5 0v-4.191l-2.96 2.96a.75.75 0 0 1-1.061-1.06l2.964-2.964H9a.75.75 0 0 1 0-1.5h4.178l-2.954-2.954a.75.75 0 0 1 1.06-1.06l2.961 2.96V3a.75.75 0 0 1 .75-.75"/></svg>
